X:267
T:The Friar and the Nun
C:Playford, 1651
N:Also for the dance "Winter's on the Way" by Colin Hume
M:2/2
L:1/4
S:Colin Hume's website,  colinhume.com  - chords can also be printed below the stave.
Q:1/2=112
L:1/4
M:2/2
K:D
[| "D"dddd | "Bm"d3d | "Em"eecd | "A"e3g |\
"D"fddd | "Bm"dd2d | "A"cAAB | "C"=c3c |
"G"BGGA | "/"B3/c/dd | "D"AAFG | "D7"A2- A=c |\
"G"BGGA | "Em"B3/c/dd | "A"cd "A7"e3/d/ | "D"d4 |]

